src/symbolic/status/daytime-sunrise-symbolic.svg

<svg xmlns="http://www.w3.org/2000/svg" width="16" height="16" version="1.1">
 <path style="fill:#444444" d="M 14.971,12.5 C 14.981,12.66 15,12.83 15,13 H 16 Z M 1.0293,12.5 0,13 H 1 C 1,12.83 1.0193,12.66 1.0293,12.5 Z M 13.66,7.3398 12.561,7.7109 C 12.811,7.9309 13.059,8.1797 13.279,8.4297 Z M 2.3398,7.3398 2.7207,8.4297 C 2.9407,8.1797 3.1895,7.9309 3.4395,7.7109 Z M 8,7 C 4.69,7 2,9.68 2,13 H 14 C 14,9.68 11.31,7 8,7 Z M 8,5 7.5,6.0293 C 7.67,6.0193 7.83,6 8,6 8.17,6 8.33,6.0193 8.5,6.0293 Z"/>
 <path style="fill:#444444" d="M 1,14 H 15 C 15.554,14 16,14.446 16,15 16,15.554 15.554,16 15,16 H 1 C 0.446,16 0,15.554 0,15 0,14.446 0.446,14 1,14 Z"/>
 <path style="fill:#444444" d="M 8,0 11,4 H 5 Z"/>
</svg>

<svg xmlns="http://www.w3.org/2000/svg" width="16" height="16"><path d="M14.971 12.5c.01.16.029.33.029.5h1zm-13.942 0L0 13h1c0-.17.02-.34.03-.5zM13.66 7.34l-1.099.37c.25.22.498.47.718.72zm-11.32 0l.38 1.09c.22-.25.47-.5.72-.72zM8 7c-3.31 0-6 2.68-6 6h12c0-3.32-2.69-6-6-6zm0-2l-.5 1.03c.17-.01.33-.03.5-.03.17 0 .33.02.5.03zM1 14h14c.554 0 1 .446 1 1s-.446 1-1 1H1c-.554 0-1-.446-1-1s.446-1 1-1zM8 0l3 4H5z" fill="#444"/></svg>
